src/shared/assets/auth/required-mark.svg

<svg width="12" height="10" viewBox="0 0 12 10" fill="none" xmlns="http://www.w3.org/2000/svg">
<g clip-path="url(#clip0_436_13274)">
<path d="M6.16673 0C6.82036 -1.4461e-07 7.2987 0.617079 7.13548 1.25L6.27122 4.59766L9.82005 1.89844C10.3281 1.51218 11.0671 1.69372 11.3386 2.27148L11.5134 2.64551C11.7847 3.22354 11.4497 3.90201 10.8249 4.04004L6.62083 4.9668L10.7986 5.89062C11.423 6.0288 11.758 6.70632 11.487 7.28418L11.3103 7.6582C11.0387 8.23601 10.3008 8.41693 9.79271 8.03027L6.25365 5.33691L7.13548 8.75C7.29859 9.38287 6.82031 10 6.16673 10H5.83177C5.17836 9.99982 4.69998 9.38276 4.86302 8.75L5.74193 5.33789L2.20677 8.03125C1.69868 8.41781 0.960696 8.23609 0.689193 7.6582L0.512436 7.28418C0.241706 6.70646 0.57669 6.02893 1.20091 5.89062L5.37865 4.9668L1.17455 4.04004C0.549863 3.90185 0.214717 3.2225 0.486068 2.64453L0.660873 2.27246C0.932219 1.69457 1.67129 1.51324 2.17943 1.89941L5.7263 4.59863L4.86302 1.25C4.69988 0.617192 5.17831 0.000175886 5.83177 0H6.16673Z" fill="#FF0000"/>
</g>
<defs>
<clipPath id="clip0_436_13274">
<rect width="12" height="10" fill="white"/>
</clipPath>
</defs>
</svg>

<svg xmlns="http://www.w3.org/2000/svg" fill="none" viewBox="0 0 12 10"><g clip-path="url(#a)"><path fill="red" d="M6.167 0a1 1 0 0 1 .968 1.25l-.864 3.348 3.55-2.7a1.007 1.007 0 0 1 1.518.373l.174.375a.995.995 0 0 1-.688 1.394l-4.204.927 4.178.924a.994.994 0 0 1 .688 1.393l-.177.374a1.006 1.006 0 0 1-1.517.372l-3.54-2.693.882 3.413A1 1 0 0 1 6.167 10h-.335a1 1 0 0 1-.969-1.25l.879-3.412L2.207 8.03a1.006 1.006 0 0 1-1.518-.373l-.177-.374a.995.995 0 0 1 .689-1.393l4.178-.924-4.204-.927a.996.996 0 0 1-.689-1.395l.175-.373A1.007 1.007 0 0 1 2.179 1.9l3.547 2.7-.863-3.349A1 1 0 0 1 5.832 0z"/></g><defs><clipPath id="a"><path fill="#fff" d="M0 0h12v10H0z"/></clipPath></defs></svg>
